components/ui-node-icon/src/extract/extract.small.svg

<svg width="16" height="16" viewBox="0 0 16 16" fill="none" xmlns="http://www.w3.org/2000/svg">
  <path fill-rule="evenodd" clip-rule="evenodd" d="M8 2H3L3 14H8V9H9V14C9 14.5523 8.55228 15 8 15H3C2.44772 15 2 14.5523 2 14V2C2 1.44772 2.44772 1 3 1H8C8.55228 1 9 1.44772 9 2V6H12.2929L11.1464 4.85355C10.9512 4.65829 10.9512 4.34171 11.1464 4.14645C11.3417 3.95118 11.6583 3.95118 11.8536 4.14645L13.8536 6.14645C14.0488 6.34171 14.0488 6.65829 13.8536 6.85355L11.8536 8.85355C11.6583 9.04882 11.3417 9.04882 11.1464 8.85355C10.9512 8.65829 10.9512 8.34171 11.1464 8.14645L12.2929 7H7.5C6.67157 7 6 7.67157 6 8.5V9.5C6 9.77614 5.77614 10 5.5 10C5.22386 10 5 9.77614 5 9.5V8.5C5 7.11929 6.11929 6 7.5 6H8V2Z" fill="currentColor"/>
</svg>

<svg xmlns="http://www.w3.org/2000/svg" width="16" height="16" fill="none" viewBox="0 0 16 16">
  <path fill="currentColor" fill-rule="evenodd" d="M8 2H3v12h5V9h1v5a1 1 0 0 1-1 1H3a1 1 0 0 1-1-1V2a1 1 0 0 1 1-1h5a1 1 0 0 1 1 1v4h3.293l-1.147-1.146a.5.5 0 0 1 .708-.708l2 2a.5.5 0 0 1 0 .708l-2 2a.5.5 0 0 1-.708-.708L12.293 7H7.5A1.5 1.5 0 0 0 6 8.5v1a.5.5 0 0 1-1 0v-1A2.5 2.5 0 0 1 7.5 6H8V2Z" clip-rule="evenodd"/>
</svg>
